%
(Header)
(Generated by gcodetools from Inkscape.)
(Using default header. To add your own header create file "header" in the output dir.)
M3
(Header end.)
G21 (All units in mm)

(Start cutting path id: path862)
(Change tool to Default tool)

G00 Z5.000000
G00 X25.469716 Y9.122052

G01 Z-1.000000 F100.0(Penetrate)
G01 X28.350496 Y12.002821 Z-1.000000 F400.000000
G02 X29.526239 Y12.617294 Z-1.000000 I1.567834 J-1.567840
G02 X29.718888 Y12.248677 Z-1.000000 I0.038540 J-0.214508
G01 X25.651702 Y8.181505 Z-1.000000
G03 X25.210471 Y7.179011 Z-1.000000 I1.068723 J-1.068728
G03 X25.600204 Y7.007476 Z-1.000000 I0.228210 J-0.010010
G01 X26.222433 Y7.629703 Z-1.000000
G02 X26.594391 Y7.440393 Z-1.000000 I0.155176 J-0.155177
G02 X26.012653 Y6.297391 Z-1.000000 I-2.047057 J0.322322
G01 X25.627754 Y5.912493 Z-1.000000
G03 X25.375188 Y5.098661 Z-1.000000 I0.646848 J-0.646851
G03 X25.803525 Y4.965731 Z-1.000000 I0.249150 J0.046256
G01 X26.086315 Y5.248520 Z-1.000000
G02 X26.504167 Y5.105104 Z-1.000000 I0.173864 J-0.173864
G02 X26.210859 Y4.250532 Z-1.000000 I-1.020522 J-0.127356
G01 X26.061322 Y4.100995 Z-1.000000
G03 X25.939098 Y3.417506 Z-1.000000 I0.429470 J-0.429472
G03 X26.415224 Y3.332364 Z-1.000000 I0.267718 J0.123266
G01 X26.504277 Y3.421416 Z-1.000000
G02 X26.993131 Y3.349002 Z-1.000000 I0.217563 J-0.217564
G02 X26.895534 Y2.690139 Z-1.000000 I-0.492796 J-0.263662
G01 X26.854101 Y2.648707 Z-1.000000
G03 X26.844508 Y2.077848 Z-1.000000 I0.290389 J-0.290390
G03 X27.396500 Y2.068572 Z-1.000000 I0.280481 J0.262236
G01 X27.410364 Y2.082436 Z-1.000000
G02 X27.995773 Y2.106578 Z-1.000000 I0.305813 J-0.305814
G02 X28.018001 Y1.567540 Z-1.000000 I-0.237055 J-0.279753
G01 X28.012369 Y1.561908 Z-1.000000
G03 X28.085329 Y1.073601 Z-1.000000 I0.217156 J-0.217157
G03 X28.745190 Y1.172194 Z-1.000000 I0.263315 J0.495141
G01 X28.745190 Y1.172194 Z-1.000000
G02 X29.489477 Y1.355213 Z-1.000000 I0.523332 J-0.523334
G02 X29.600252 Y0.904721 Z-1.000000 I-0.080946 J-0.258770
G01 X29.593336 Y0.897806 Z-1.000000
G03 X29.726719 Y0.469922 Z-1.000000 I0.178948 J-0.178949
G03 X30.542191 Y0.724126 Z-1.000000 I0.165502 J0.904176
G01 X30.570677 Y0.752611 Z-1.000000
G02 X31.596416 Y1.217080 Z-1.000000 I1.129471 J-1.129475
G02 X31.771352 Y0.830750 Z-1.000000 I0.014715 J-0.226109
G01 X31.625983 Y0.685381 Z-1.000000
G03 X31.798516 Y0.296647 Z-1.000000 I0.161137 J-0.161137
G03 X32.807691 Y0.744553 Z-1.000000 I-0.076806 J1.533888
G01 X33.631598 Y1.568456 Z-1.000000
G02 X34.688354 Y2.063943 Z-1.000000 I1.213539 J-1.213544
G02 X34.867514 Y1.681836 Z-1.000000 I0.020498 J-0.223444
G01 X33.836047 Y0.650373 Z-1.000000
G00 Z5.000000

(End cutting path id: path862)


(Start cutting path id: path862)
(Change tool to Default tool)

G00 Z5.000000
G00 X25.469716 Y9.122052

G01 Z-1.000000 F100.0(Penetrate)
G01 X28.350496 Y12.002821 Z-1.000000 F400.000000
G02 X29.526239 Y12.617294 Z-1.000000 I1.567834 J-1.567840
G02 X29.718888 Y12.248677 Z-1.000000 I0.038540 J-0.214508
G01 X25.651702 Y8.181505 Z-1.000000
G03 X25.210471 Y7.179011 Z-1.000000 I1.068723 J-1.068728
G03 X25.600204 Y7.007476 Z-1.000000 I0.228210 J-0.010010
G01 X26.222433 Y7.629703 Z-1.000000
G02 X26.594391 Y7.440393 Z-1.000000 I0.155176 J-0.155177
G02 X26.012653 Y6.297391 Z-1.000000 I-2.047057 J0.322322
G01 X25.627754 Y5.912493 Z-1.000000
G03 X25.375188 Y5.098661 Z-1.000000 I0.646848 J-0.646851
G03 X25.803525 Y4.965731 Z-1.000000 I0.249150 J0.046256
G01 X26.086315 Y5.248520 Z-1.000000
G02 X26.504167 Y5.105104 Z-1.000000 I0.173864 J-0.173864
G02 X26.210859 Y4.250532 Z-1.000000 I-1.020522 J-0.127356
G01 X26.061322 Y4.100995 Z-1.000000
G03 X25.939098 Y3.417506 Z-1.000000 I0.429470 J-0.429472
G03 X26.415224 Y3.332364 Z-1.000000 I0.267718 J0.123266
G01 X26.504277 Y3.421416 Z-1.000000
G02 X26.993131 Y3.349002 Z-1.000000 I0.217563 J-0.217564
G02 X26.895534 Y2.690139 Z-1.000000 I-0.492796 J-0.263662
G01 X26.854101 Y2.648707 Z-1.000000
G03 X26.844508 Y2.077848 Z-1.000000 I0.290389 J-0.290390
G03 X27.396500 Y2.068572 Z-1.000000 I0.280481 J0.262236
G01 X27.410364 Y2.082436 Z-1.000000
G02 X27.995773 Y2.106578 Z-1.000000 I0.305813 J-0.305814
G02 X28.018001 Y1.567540 Z-1.000000 I-0.237055 J-0.279753
G01 X28.012369 Y1.561908 Z-1.000000
G03 X28.085329 Y1.073601 Z-1.000000 I0.217156 J-0.217157
G03 X28.745190 Y1.172194 Z-1.000000 I0.263315 J0.495141
G01 X28.745190 Y1.172194 Z-1.000000
G02 X29.489477 Y1.355213 Z-1.000000 I0.523332 J-0.523334
G02 X29.600252 Y0.904721 Z-1.000000 I-0.080946 J-0.258770
G01 X29.593336 Y0.897806 Z-1.000000
G03 X29.726719 Y0.469922 Z-1.000000 I0.178948 J-0.178949
G03 X30.542191 Y0.724126 Z-1.000000 I0.165502 J0.904176
G01 X30.570677 Y0.752611 Z-1.000000
G02 X31.596416 Y1.217080 Z-1.000000 I1.129471 J-1.129475
G02 X31.771352 Y0.830750 Z-1.000000 I0.014715 J-0.226109
G01 X31.625983 Y0.685381 Z-1.000000
G03 X31.798516 Y0.296647 Z-1.000000 I0.161137 J-0.161137
G03 X32.807691 Y0.744553 Z-1.000000 I-0.076806 J1.533888
G01 X33.631598 Y1.568456 Z-1.000000
G02 X34.688354 Y2.063943 Z-1.000000 I1.213539 J-1.213544
G02 X34.867514 Y1.681836 Z-1.000000 I0.020498 J-0.223444
G01 X33.836047 Y0.650373 Z-1.000000
G00 Z5.000000

(End cutting path id: path862)


(Start cutting path id: path843)
(Change tool to Default tool)

G00 Z5.000000
G00 X35.553050 Y1.137376

G01 Z-1.000000 F100.0(Penetrate)
G03 X35.080522 Y0.932527 Z-1.000000 I17.998509 J-42.164824 F400.000000
G03 X34.691784 Y0.758241 Z-1.000000 I12.638706 J-28.710886
G02 X34.306667 Y0.597209 Z-1.000000 I-2.167479 J4.642617
G02 X33.692716 Y0.387543 Z-1.000000 I-4.305330 J11.603306
G02 X33.163207 Y0.244720 Z-1.000000 I-2.474825 J8.122290
G02 X32.547232 Y0.117937 Z-1.000000 I-2.557935 J10.867959
G02 X31.932665 Y0.032093 Z-1.000000 I-1.135612 J5.887215
G02 X31.195045 Y-0.000018 Z-1.000000 I-0.737620 J8.455788
G02 X29.816284 Y0.102287 Z-1.000000 I-0.000000 J9.341940
G02 X28.654311 Y0.379117 Z-1.000000 I1.029188 J6.897007
G02 X27.586004 Y0.878774 Z-1.000000 I1.749945 J5.133416
G02 X26.673400 Y1.583907 Z-1.000000 I2.694900 J4.430944
G02 X25.959897 Y2.458786 Z-1.000000 I3.349264 J3.459856
G02 X25.381501 Y3.614363 Z-1.000000 I5.323200 J3.386942
G02 X25.045966 Y4.876379 Z-1.000000 I6.161421 J2.313761
G02 X24.916417 Y6.487331 Z-1.000000 I9.951350 J1.610952
G02 X25.039099 Y8.015775 Z-1.000000 I9.582460 J0.000000
G02 X25.364275 Y9.259197 Z-1.000000 I6.646003 J-1.073814
G02 X25.926587 Y10.407666 Z-1.000000 I5.787048 J-2.121551
G02 X26.656174 Y11.323353 Z-1.000000 I4.379942 J-2.741286
G02 X27.543642 Y12.032671 Z-1.000000 I3.639710 J-3.644008
G02 X28.628472 Y12.570272 Z-1.000000 I3.125694 J-4.944029
G02 X29.811808 Y12.884632 Z-1.000000 I2.253054 J-6.096723
G02 X31.203658 Y12.999953 Z-1.000000 I1.391849 J-8.341696
G02 X32.230041 Y12.939252 Z-1.000000 I0.000000 J-8.707813
G02 X33.262083 Y12.755625 Z-1.000000 I-1.066852 J-8.988054
G02 X34.272927 Y12.447906 Z-1.000000 I-1.919580 J-8.119905
G02 X35.553050 Y11.896261 Z-1.000000 I-5.099791 J-13.595479
G01 X35.553050 Y9.916357 Z-1.000000
G01 X35.423860 Y9.916357 Z-1.000000
G03 X34.314647 Y10.698016 Z-1.000000 I-5.939893 J-7.251156
G03 X33.322371 Y11.180126 Z-1.000000 I-3.192859 J-5.309322
G03 X32.261329 Y11.473098 Z-1.000000 I-2.088982 J-5.497722
G03 X31.091693 Y11.576107 Z-1.000000 I-1.169636 J-6.588908
G03 X30.134602 Y11.491860 Z-1.000000 I0.000000 J-5.478622
G03 X29.334711 Y11.264377 Z-1.000000 I0.717025 J-4.041313
G03 X28.613024 Y10.881919 Z-1.000000 I1.304270 J-3.333250
G03 X27.948073 Y10.312338 Z-1.000000 I2.328061 J-3.390806
G03 X27.438739 Y9.629049 Z-1.000000 I2.724639 J-2.562464
G03 X27.017906 Y8.711564 Z-1.000000 I4.536711 J-2.636161
G03 X26.781997 Y7.735959 Z-1.000000 I5.218333 J-1.778158
G03 X26.690625 Y6.487331 Z-1.000000 I8.485810 J-1.248628
G03 X26.793644 Y5.183498 Z-1.000000 I8.302307 J-0.000000
G03 X27.052357 Y4.212546 Z-1.000000 I4.839629 J0.769588
G03 X27.499459 Y3.309621 Z-1.000000 I5.294894 J2.059718
G03 X27.999749 Y2.662323 Z-1.000000 I3.196051 J1.953211
G03 X28.654987 Y2.118411 Z-1.000000 I2.804797 J2.712244
G03 X29.403612 Y1.735560 Z-1.000000 I2.095716 J3.174597
G03 X30.226564 Y1.516406 Z-1.000000 I1.638922 J4.499646
G03 X31.108918 Y1.440680 Z-1.000000 I0.882354 J5.102703
G03 X32.320622 Y1.548187 Z-1.000000 I-0.000000 J6.882291
G03 X33.417110 Y1.853512 Z-1.000000 I-1.060813 J5.931135
G03 X34.438432 Y2.357747 Z-1.000000 I-2.209198 J5.761161
G03 X35.432473 Y3.092005 Z-1.000000 I-3.802996 J6.188499
G01 X35.553050 Y3.092005 Z-1.000000
G01 X35.553050 Y1.137376 Z-1.000000
G00 Z5.000000

(End cutting path id: path843)


(Start cutting path id: path843)
(Change tool to Default tool)

G00 Z5.000000
G00 X35.553050 Y1.137376

G01 Z-1.000000 F100.0(Penetrate)
G03 X35.080522 Y0.932527 Z-1.000000 I17.998509 J-42.164824 F400.000000
G03 X34.691784 Y0.758241 Z-1.000000 I12.638706 J-28.710886
G02 X34.306667 Y0.597209 Z-1.000000 I-2.167479 J4.642617
G02 X33.692716 Y0.387543 Z-1.000000 I-4.305330 J11.603306
G02 X33.163207 Y0.244720 Z-1.000000 I-2.474825 J8.122290
G02 X32.547232 Y0.117937 Z-1.000000 I-2.557935 J10.867959
G02 X31.932665 Y0.032093 Z-1.000000 I-1.135612 J5.887215
G02 X31.195045 Y-0.000018 Z-1.000000 I-0.737620 J8.455788
G02 X29.816284 Y0.102287 Z-1.000000 I-0.000000 J9.341940
G02 X28.654311 Y0.379117 Z-1.000000 I1.029188 J6.897007
G02 X27.586004 Y0.878774 Z-1.000000 I1.749945 J5.133416
G02 X26.673400 Y1.583907 Z-1.000000 I2.694900 J4.430944
G02 X25.959897 Y2.458786 Z-1.000000 I3.349264 J3.459856
G02 X25.381501 Y3.614363 Z-1.000000 I5.323200 J3.386942
G02 X25.045966 Y4.876379 Z-1.000000 I6.161421 J2.313761
G02 X24.916417 Y6.487331 Z-1.000000 I9.951350 J1.610952
G02 X25.039099 Y8.015775 Z-1.000000 I9.582460 J0.000000
G02 X25.364275 Y9.259197 Z-1.000000 I6.646003 J-1.073814
G02 X25.926587 Y10.407666 Z-1.000000 I5.787048 J-2.121551
G02 X26.656174 Y11.323353 Z-1.000000 I4.379942 J-2.741286
G02 X27.543642 Y12.032671 Z-1.000000 I3.639710 J-3.644008
G02 X28.628472 Y12.570272 Z-1.000000 I3.125694 J-4.944029
G02 X29.811808 Y12.884632 Z-1.000000 I2.253054 J-6.096723
G02 X31.203658 Y12.999953 Z-1.000000 I1.391849 J-8.341696
G02 X32.230041 Y12.939252 Z-1.000000 I0.000000 J-8.707813
G02 X33.262083 Y12.755625 Z-1.000000 I-1.066852 J-8.988054
G02 X34.272927 Y12.447906 Z-1.000000 I-1.919580 J-8.119905
G02 X35.553050 Y11.896261 Z-1.000000 I-5.099791 J-13.595479
G01 X35.553050 Y9.916357 Z-1.000000
G01 X35.423860 Y9.916357 Z-1.000000
G03 X34.314647 Y10.698016 Z-1.000000 I-5.939893 J-7.251156
G03 X33.322371 Y11.180126 Z-1.000000 I-3.192859 J-5.309322
G03 X32.261329 Y11.473098 Z-1.000000 I-2.088982 J-5.497722
G03 X31.091693 Y11.576107 Z-1.000000 I-1.169636 J-6.588908
G03 X30.134602 Y11.491860 Z-1.000000 I0.000000 J-5.478622
G03 X29.334711 Y11.264377 Z-1.000000 I0.717025 J-4.041313
G03 X28.613024 Y10.881919 Z-1.000000 I1.304270 J-3.333250
G03 X27.948073 Y10.312338 Z-1.000000 I2.328061 J-3.390806
G03 X27.438739 Y9.629049 Z-1.000000 I2.724639 J-2.562464
G03 X27.017906 Y8.711564 Z-1.000000 I4.536711 J-2.636161
G03 X26.781997 Y7.735959 Z-1.000000 I5.218333 J-1.778158
G03 X26.690625 Y6.487331 Z-1.000000 I8.485810 J-1.248628
G03 X26.793644 Y5.183498 Z-1.000000 I8.302307 J-0.000000
G03 X27.052357 Y4.212546 Z-1.000000 I4.839629 J0.769588
G03 X27.499459 Y3.309621 Z-1.000000 I5.294894 J2.059718
G03 X27.999749 Y2.662323 Z-1.000000 I3.196051 J1.953211
G03 X28.654987 Y2.118411 Z-1.000000 I2.804797 J2.712244
G03 X29.403612 Y1.735560 Z-1.000000 I2.095716 J3.174597
G03 X30.226564 Y1.516406 Z-1.000000 I1.638922 J4.499646
G03 X31.108918 Y1.440680 Z-1.000000 I0.882354 J5.102703
G03 X32.320622 Y1.548187 Z-1.000000 I-0.000000 J6.882291
G03 X33.417110 Y1.853512 Z-1.000000 I-1.060813 J5.931135
G03 X34.438432 Y2.357747 Z-1.000000 I-2.209198 J5.761161
G03 X35.432473 Y3.092005 Z-1.000000 I-3.802996 J6.188499
G01 X35.553050 Y3.092005 Z-1.000000
G01 X35.553050 Y1.137376 Z-1.000000
G00 Z5.000000

(End cutting path id: path843)


(Start cutting path id: path862)
(Change tool to Default tool)

G00 Z5.000000
G00 X30.326262 Y11.733517

G01 Z-1.000000 F100.0(Penetrate)
G01 X30.913187 Y12.320440 Z-1.000000 F400.000000
G02 X31.804208 Y12.650193 Z-1.000000 I0.804121 J-0.804123
G02 X31.955816 Y12.240534 Z-1.000000 I-0.018369 J-0.239681
G01 X31.934185 Y12.218903 Z-1.000000
G03 X32.074670 Y11.798122 Z-1.000000 I0.175311 J-0.175312
G03 X32.917247 Y12.079430 Z-1.000000 I0.139641 J0.984247
G01 X32.919961 Y12.082143 Z-1.000000
G02 X33.669526 Y12.270440 Z-1.000000 I0.532102 J-0.532103
G02 X33.782213 Y11.821860 Z-1.000000 I-0.077884 J-0.258009
G01 X33.782213 Y11.821860 Z-1.000000
G03 X33.868199 Y11.346580 Z-1.000000 I0.207819 J-0.207820
G03 X34.553441 Y11.470552 Z-1.000000 I0.253251 J0.555964
G01 X34.750298 Y11.667409 Z-1.000000
G02 X35.217936 Y11.573779 Z-1.000000 I0.202623 J-0.202624
G02 X35.077428 Y10.872005 Z-1.000000 I-0.596822 J-0.245458
G01 X34.866390 Y10.660968 Z-1.000000
G00 Z5.000000

(End cutting path id: path862)


(Start cutting path id: path862)
(Change tool to Default tool)

G00 Z5.000000
G00 X30.326262 Y11.733517

G01 Z-1.000000 F100.0(Penetrate)
G01 X30.913187 Y12.320440 Z-1.000000 F400.000000
G02 X31.804208 Y12.650193 Z-1.000000 I0.804121 J-0.804123
G02 X31.955816 Y12.240534 Z-1.000000 I-0.018369 J-0.239681
G01 X31.934185 Y12.218903 Z-1.000000
G03 X32.074670 Y11.798122 Z-1.000000 I0.175311 J-0.175312
G03 X32.917247 Y12.079430 Z-1.000000 I0.139641 J0.984247
G01 X32.919961 Y12.082143 Z-1.000000
G02 X33.669526 Y12.270440 Z-1.000000 I0.532102 J-0.532103
G02 X33.782213 Y11.821860 Z-1.000000 I-0.077884 J-0.258009
G01 X33.782213 Y11.821860 Z-1.000000
G03 X33.868199 Y11.346580 Z-1.000000 I0.207819 J-0.207820
G03 X34.553441 Y11.470552 Z-1.000000 I0.253251 J0.555964
G01 X34.750298 Y11.667409 Z-1.000000
G02 X35.217936 Y11.573779 Z-1.000000 I0.202623 J-0.202624
G02 X35.077428 Y10.872005 Z-1.000000 I-0.596822 J-0.245458
G01 X34.866390 Y10.660968 Z-1.000000
G00 Z5.000000

(End cutting path id: path862)


(Start cutting path id: path841)
(Change tool to Default tool)

G00 Z5.000000
G00 X23.228337 Y4.086170

G01 Z-1.000000 F100.0(Penetrate)
G02 X23.129653 Y3.174490 Z-1.000000 I-4.260554 J-0.000000 F400.000000
G02 X22.866606 Y2.434846 Z-1.000000 I-3.050098 J0.668141
G02 X22.436112 Y1.776046 Z-1.000000 I-3.168832 J1.600626
G02 X21.893375 Y1.255327 Z-1.000000 I-2.501214 J2.063774
G02 X21.130481 Y0.778847 Z-1.000000 I-2.829597 J3.681495
G02 X20.300034 Y0.463364 Z-1.000000 I-2.015949 J4.055864
G02 X19.429223 Y0.298443 Z-1.000000 I-1.461767 J5.336890
G02 X18.103806 Y0.227465 Z-1.000000 I-1.325418 J12.339658
G01 X13.556322 Y0.227465 Z-1.000000
G01 X13.556322 Y12.772475 Z-1.000000
G01 X17.354505 Y12.772475 Z-1.000000
G02 X18.755939 Y12.738783 Z-1.000000 I0.000000 J-29.163587
G02 X19.455993 Y12.671373 Z-1.000000 I-0.352734 J-7.331857
G02 X20.136479 Y12.515774 Z-1.000000 I-0.619644 J-4.275713
G02 X20.790955 Y12.250117 Z-1.000000 I-1.331189 J-4.218542
G02 X21.423147 Y11.811257 Z-1.000000 I-1.325969 J-2.584880
G02 X21.815861 Y11.314929 Z-1.000000 I-1.324360 J-1.451415
G02 X22.045464 Y10.727040 Z-1.000000 I-1.947292 J-1.099304
G02 X22.134529 Y9.958483 Z-1.000000 I-3.271447 J-0.768557
G02 X22.007587 Y9.107100 Z-1.000000 I-2.918518 J-0.000000
G02 X21.669446 Y8.433535 Z-1.000000 I-2.140032 J0.652673
G02 X21.142053 Y7.885205 Z-1.000000 I-2.445242 J1.824085
G02 X20.429223 Y7.430945 Z-1.000000 I-2.367375 J2.928488
G01 X20.429223 Y7.363541 Z-1.000000
G02 X21.627948 Y6.927016 Z-1.000000 I-0.834694 J-4.156267
G02 X22.479036 Y6.242999 Z-1.000000 I-1.489594 J-2.724921
G02 X23.021158 Y5.313846 Z-1.000000 I-2.096011 J-1.845662
G02 X23.228337 Y4.086167 Z-1.000000 I-3.533823 J-1.227679
G01 X23.228337 Y4.086170 Z-1.000000
G00 Z5.000000

(End cutting path id: path841)


(Start cutting path id: path841)
(Change tool to Default tool)

G00 Z5.000000
G00 X23.228337 Y4.086170

G01 Z-1.000000 F100.0(Penetrate)
G02 X23.129653 Y3.174490 Z-1.000000 I-4.260554 J-0.000000 F400.000000
G02 X22.866606 Y2.434846 Z-1.000000 I-3.050098 J0.668141
G02 X22.436112 Y1.776046 Z-1.000000 I-3.168832 J1.600626
G02 X21.893375 Y1.255327 Z-1.000000 I-2.501214 J2.063774
G02 X21.130481 Y0.778847 Z-1.000000 I-2.829597 J3.681495
G02 X20.300034 Y0.463364 Z-1.000000 I-2.015949 J4.055864
G02 X19.429223 Y0.298443 Z-1.000000 I-1.461767 J5.336890
G02 X18.103806 Y0.227465 Z-1.000000 I-1.325418 J12.339658
G01 X13.556322 Y0.227465 Z-1.000000
G01 X13.556322 Y12.772475 Z-1.000000
G01 X17.354505 Y12.772475 Z-1.000000
G02 X18.755939 Y12.738783 Z-1.000000 I0.000000 J-29.163587
G02 X19.455993 Y12.671373 Z-1.000000 I-0.352734 J-7.331857
G02 X20.136479 Y12.515774 Z-1.000000 I-0.619644 J-4.275713
G02 X20.790955 Y12.250117 Z-1.000000 I-1.331189 J-4.218542
G02 X21.423147 Y11.811257 Z-1.000000 I-1.325969 J-2.584880
G02 X21.815861 Y11.314929 Z-1.000000 I-1.324360 J-1.451415
G02 X22.045464 Y10.727040 Z-1.000000 I-1.947292 J-1.099304
G02 X22.134529 Y9.958483 Z-1.000000 I-3.271447 J-0.768557
G02 X22.007587 Y9.107100 Z-1.000000 I-2.918518 J-0.000000
G02 X21.669446 Y8.433535 Z-1.000000 I-2.140032 J0.652673
G02 X21.142053 Y7.885205 Z-1.000000 I-2.445242 J1.824085
G02 X20.429223 Y7.430945 Z-1.000000 I-2.367375 J2.928488
G01 X20.429223 Y7.363541 Z-1.000000
G02 X21.627948 Y6.927016 Z-1.000000 I-0.834694 J-4.156267
G02 X22.479036 Y6.242999 Z-1.000000 I-1.489594 J-2.724921
G02 X23.021158 Y5.313846 Z-1.000000 I-2.096011 J-1.845662
G02 X23.228337 Y4.086167 Z-1.000000 I-3.533823 J-1.227679
G01 X23.228337 Y4.086170 Z-1.000000
G00 Z5.000000

(End cutting path id: path841)


(Start cutting path id: path841)
(Change tool to Default tool)

G00 Z5.000000
G00 X21.454130 Y4.018769

G01 Z-1.000000 F100.0(Penetrate)
G03 X21.383280 Y4.759688 Z-1.000000 I-3.909530 J0.000000 F400.000000
G03 X21.221588 Y5.223562 Z-1.000000 I-1.672198 J-0.322758
G03 X20.925267 Y5.605758 Z-1.000000 I-1.202053 J-0.625998
G03 X20.377548 Y5.981823 Z-1.000000 I-1.709462 J-1.902847
G03 X19.950434 Y6.145679 Z-1.000000 I-0.991745 J-1.946533
G03 X19.369867 Y6.251427 Z-1.000000 I-0.939567 J-3.511762
G03 X18.783066 Y6.298972 Z-1.000000 I-0.997765 J-8.669391
G03 X17.940165 Y6.318831 Z-1.000000 I-0.842901 J-17.878693
G01 X15.261628 Y6.318831 Z-1.000000
G01 X15.261628 Y1.651311 Z-1.000000
G01 X17.518146 Y1.651311 Z-1.000000
G03 X18.635253 Y1.684630 Z-1.000000 I-0.000000 J18.744035
G03 X19.352641 Y1.760838 Z-1.000000 I-0.465480 J7.796450
G03 X20.043239 Y1.940405 Z-1.000000 I-0.640185 J3.879866
G03 X20.523963 Y2.182095 Z-1.000000 I-0.756672 J2.103961
G03 X20.958722 Y2.553285 Z-1.000000 I-1.484162 J2.178540
G03 X21.230201 Y2.931931 Z-1.000000 I-1.274634 J1.200522
G03 X21.387957 Y3.369682 Z-1.000000 I-1.444550 J0.767885
G03 X21.454130 Y4.018772 Z-1.000000 I-3.150364 J0.649089
G01 X21.454130 Y4.018769 Z-1.000000
G00 Z5.000000

(End cutting path id: path841)


(Start cutting path id: path841)
(Change tool to Default tool)

G00 Z5.000000
G00 X21.454130 Y4.018769

G01 Z-1.000000 F100.0(Penetrate)
G03 X21.383280 Y4.759688 Z-1.000000 I-3.909530 J0.000000 F400.000000
G03 X21.221588 Y5.223562 Z-1.000000 I-1.672198 J-0.322758
G03 X20.925267 Y5.605758 Z-1.000000 I-1.202053 J-0.625998
G03 X20.377548 Y5.981823 Z-1.000000 I-1.709462 J-1.902847
G03 X19.950434 Y6.145679 Z-1.000000 I-0.991745 J-1.946533
G03 X19.369867 Y6.251427 Z-1.000000 I-0.939567 J-3.511762
G03 X18.783066 Y6.298972 Z-1.000000 I-0.997765 J-8.669391
G03 X17.940165 Y6.318831 Z-1.000000 I-0.842901 J-17.878693
G01 X15.261628 Y6.318831 Z-1.000000
G01 X15.261628 Y1.651311 Z-1.000000
G01 X17.518146 Y1.651311 Z-1.000000
G03 X18.635253 Y1.684630 Z-1.000000 I-0.000000 J18.744035
G03 X19.352641 Y1.760838 Z-1.000000 I-0.465480 J7.796450
G03 X20.043239 Y1.940405 Z-1.000000 I-0.640185 J3.879866
G03 X20.523963 Y2.182095 Z-1.000000 I-0.756672 J2.103961
G03 X20.958722 Y2.553285 Z-1.000000 I-1.484162 J2.178540
G03 X21.230201 Y2.931931 Z-1.000000 I-1.274634 J1.200522
G03 X21.387957 Y3.369682 Z-1.000000 I-1.444550 J0.767885
G03 X21.454130 Y4.018772 Z-1.000000 I-3.150364 J0.649089
G01 X21.454130 Y4.018769 Z-1.000000
G00 Z5.000000

(End cutting path id: path841)


(Start cutting path id: path857)
(Change tool to Default tool)

G00 Z5.000000
G00 X19.194020 Y0.542138

G01 Z-1.000000 F100.0(Penetrate)
G01 X22.540405 Y3.888511 Z-1.000000 F400.000000
G02 X22.922468 Y3.709306 Z-1.000000 I0.158646 J-0.158647
G02 X22.426643 Y2.652217 Z-1.000000 I-1.710288 J0.157379
G01 X20.465028 Y0.690610 Z-1.000000
G00 Z5.000000

(End cutting path id: path857)


(Start cutting path id: path857)
(Change tool to Default tool)

G00 Z5.000000
G00 X19.194020 Y0.542138

G01 Z-1.000000 F100.0(Penetrate)
G01 X22.540405 Y3.888511 Z-1.000000 F400.000000
G02 X22.922468 Y3.709306 Z-1.000000 I0.158646 J-0.158647
G02 X22.426643 Y2.652217 Z-1.000000 I-1.710288 J0.157379
G01 X20.465028 Y0.690610 Z-1.000000
G00 Z5.000000

(End cutting path id: path857)


(Start cutting path id: path857)
(Change tool to Default tool)

G00 Z5.000000
G00 X14.997045 Y5.325434

G01 Z-1.000000 F100.0(Penetrate)
G01 X14.241858 Y4.570250 Z-1.000000 F400.000000
G03 X13.844982 Y3.612110 Z-1.000000 I0.958136 J-0.958140
G03 X14.241858 Y3.447718 Z-1.000000 I0.232485 J-0.000000
G01 X14.576094 Y3.781952 Z-1.000000
G02 X14.972969 Y3.617561 Z-1.000000 I0.164391 J-0.164392
G02 X14.576094 Y2.659420 Z-1.000000 I-1.355012 J0.000000
G01 X14.241858 Y2.325186 Z-1.000000
G03 X13.844982 Y1.367046 Z-1.000000 I0.958136 J-0.958140
G03 X14.241858 Y1.202654 Z-1.000000 I0.232485 J0.000000
G01 X14.576094 Y1.536888 Z-1.000000
G02 X15.132482 Y1.532009 Z-1.000000 I0.275797 J-0.275798
G02 X15.127517 Y0.965778 Z-1.000000 I-0.290606 J-0.280589
G01 X15.074736 Y0.912998 Z-1.000000
G03 X15.239127 Y0.516122 Z-1.000000 I0.164391 J-0.164392
G03 X16.197273 Y0.912998 Z-1.000000 I-0.000000 J1.355025
G01 X16.250054 Y0.965778 Z-1.000000
G02 X17.273739 Y1.428194 Z-1.000000 I1.124027 J-1.124031
G02 X17.448383 Y1.041572 Z-1.000000 I0.014313 J-0.226291
G01 X17.319808 Y0.912998 Z-1.000000
G03 X17.484199 Y0.516122 Z-1.000000 I0.164391 J-0.164392
G03 X18.442344 Y0.912998 Z-1.000000 I0.000000 J1.355025
G01 X18.976436 Y1.447087 Z-1.000000
G00 Z5.000000

(End cutting path id: path857)


(Start cutting path id: path857)
(Change tool to Default tool)

G00 Z5.000000
G00 X14.997045 Y5.325434

G01 Z-1.000000 F100.0(Penetrate)
G01 X14.241858 Y4.570250 Z-1.000000 F400.000000
G03 X13.844982 Y3.612110 Z-1.000000 I0.958136 J-0.958140
G03 X14.241858 Y3.447718 Z-1.000000 I0.232485 J-0.000000
G01 X14.576094 Y3.781952 Z-1.000000
G02 X14.972969 Y3.617561 Z-1.000000 I0.164391 J-0.164392
G02 X14.576094 Y2.659420 Z-1.000000 I-1.355012 J0.000000
G01 X14.241858 Y2.325186 Z-1.000000
G03 X13.844982 Y1.367046 Z-1.000000 I0.958136 J-0.958140
G03 X14.241858 Y1.202654 Z-1.000000 I0.232485 J0.000000
G01 X14.576094 Y1.536888 Z-1.000000
G02 X15.132482 Y1.532009 Z-1.000000 I0.275797 J-0.275798
G02 X15.127517 Y0.965778 Z-1.000000 I-0.290606 J-0.280589
G01 X15.074736 Y0.912998 Z-1.000000
G03 X15.239127 Y0.516122 Z-1.000000 I0.164391 J-0.164392
G03 X16.197273 Y0.912998 Z-1.000000 I-0.000000 J1.355025
G01 X16.250054 Y0.965778 Z-1.000000
G02 X17.273739 Y1.428194 Z-1.000000 I1.124027 J-1.124031
G02 X17.448383 Y1.041572 Z-1.000000 I0.014313 J-0.226291
G01 X17.319808 Y0.912998 Z-1.000000
G03 X17.484199 Y0.516122 Z-1.000000 I0.164391 J-0.164392
G03 X18.442344 Y0.912998 Z-1.000000 I0.000000 J1.355025
G01 X18.976436 Y1.447087 Z-1.000000
G00 Z5.000000

(End cutting path id: path857)


(Start cutting path id: path839)
(Change tool to Default tool)

G00 Z5.000000
G00 X11.609862 Y0.227465

G01 Z-1.000000 F100.0(Penetrate)
G01 X9.792591 Y0.227465 Z-1.000000 F400.000000
G01 X8.535143 Y3.723890 Z-1.000000
G01 X2.988592 Y3.723890 Z-1.000000
G01 X1.731144 Y0.227465 Z-1.000000
G01 X-0.000001 Y0.227465 Z-1.000000
G01 X4.668060 Y12.772475 Z-1.000000
G01 X6.941802 Y12.772475 Z-1.000000
G01 X11.609862 Y0.227465 Z-1.000000
G00 Z5.000000

(End cutting path id: path839)


(Start cutting path id: path839)
(Change tool to Default tool)

G00 Z5.000000
G00 X11.609862 Y0.227465

G01 Z-1.000000 F100.0(Penetrate)
G01 X9.792591 Y0.227465 Z-1.000000 F400.000000
G01 X8.535143 Y3.723890 Z-1.000000
G01 X2.988592 Y3.723890 Z-1.000000
G01 X1.731144 Y0.227465 Z-1.000000
G01 X-0.000001 Y0.227465 Z-1.000000
G01 X4.668060 Y12.772475 Z-1.000000
G01 X6.941802 Y12.772475 Z-1.000000
G01 X11.609862 Y0.227465 Z-1.000000
G00 Z5.000000

(End cutting path id: path839)


(Start cutting path id: path839)
(Change tool to Default tool)

G00 Z5.000000
G00 X8.009771 Y5.156161

G01 Z-1.000000 F100.0(Penetrate)
G01 X5.761868 Y11.314929 Z-1.000000 F400.000000
G01 X3.505351 Y5.156161 Z-1.000000
G01 X8.009771 Y5.156161 Z-1.000000
G00 Z5.000000

(End cutting path id: path839)


(Start cutting path id: path839)
(Change tool to Default tool)

G00 Z5.000000
G00 X8.009771 Y5.156161

G01 Z-1.000000 F100.0(Penetrate)
G01 X5.761868 Y11.314929 Z-1.000000 F400.000000
G01 X3.505351 Y5.156161 Z-1.000000
G01 X8.009771 Y5.156161 Z-1.000000
G00 Z5.000000

(End cutting path id: path839)


(Start cutting path id: path852)
(Change tool to Default tool)

G00 Z5.000000
G00 X4.457922 Y4.891578

G01 Z-1.000000 F100.0(Penetrate)
G01 X3.975765 Y4.409423 Z-1.000000 F400.000000
G03 X4.140156 Y4.012547 Z-1.000000 I0.164391 J-0.164392
G03 X5.098301 Y4.409423 Z-1.000000 I-0.000000 J1.355025
G01 X5.159507 Y4.470628 Z-1.000000
G02 X6.117653 Y4.867504 Z-1.000000 I0.958146 J-0.958149
G02 X6.282044 Y4.470628 Z-1.000000 I0.000000 J-0.232484
G01 X5.799887 Y3.988473 Z-1.000000
G00 Z5.000000

(End cutting path id: path852)


(Start cutting path id: path852)
(Change tool to Default tool)

G00 Z5.000000
G00 X4.457922 Y4.891578

G01 Z-1.000000 F100.0(Penetrate)
G01 X3.975765 Y4.409423 Z-1.000000 F400.000000
G03 X4.140156 Y4.012547 Z-1.000000 I0.164391 J-0.164392
G03 X5.098301 Y4.409423 Z-1.000000 I-0.000000 J1.355025
G01 X5.159507 Y4.470628 Z-1.000000
G02 X6.117653 Y4.867504 Z-1.000000 I0.958146 J-0.958149
G02 X6.282044 Y4.470628 Z-1.000000 I0.000000 J-0.232484
G01 X5.799887 Y3.988473 Z-1.000000
G00 Z5.000000

(End cutting path id: path852)


(Start cutting path id: path852)
(Change tool to Default tool)

G00 Z5.000000
G00 X6.136478 Y11.060256

G01 Z-1.000000 F100.0(Penetrate)
G01 X6.561047 Y11.484822 Z-1.000000 F400.000000
G02 X7.021880 Y11.384388 Z-1.000000 I0.198171 J-0.198172
G02 X6.865470 Y10.666712 Z-1.000000 I-0.637040 J-0.237046
G01 X6.857589 Y10.658831 Z-1.000000
G03 X6.698154 Y9.938130 Z-1.000000 I0.485355 J-0.485357
G03 X7.157750 Y9.836457 Z-1.000000 I0.262216 J0.095707
G01 X7.169893 Y9.848601 Z-1.000000
G02 X7.630726 Y9.748167 Z-1.000000 I0.198171 J-0.198172
G02 X7.474316 Y9.030490 Z-1.000000 I-0.637040 J-0.237046
G01 X7.457909 Y9.014084 Z-1.000000
G03 X7.298474 Y8.293383 Z-1.000000 I0.485355 J-0.485357
G03 X7.758070 Y8.191710 Z-1.000000 I0.262216 J0.095707
G01 X7.778739 Y8.212380 Z-1.000000
G02 X8.239573 Y8.111945 Z-1.000000 I0.198171 J-0.198172
G02 X8.083162 Y7.394269 Z-1.000000 I-0.637040 J-0.237046
G01 X8.058230 Y7.369337 Z-1.000000
G03 X7.898795 Y6.648636 Z-1.000000 I0.485355 J-0.485357
G03 X8.358390 Y6.546963 Z-1.000000 I0.262216 J0.095707
G01 X8.387585 Y6.576158 Z-1.000000
G02 X8.848419 Y6.475724 Z-1.000000 I0.198171 J-0.198172
G02 X8.692008 Y5.758048 Z-1.000000 I-0.637040 J-0.237046
G01 X7.343374 Y4.409419 Z-1.000000
G03 X7.507765 Y4.012543 Z-1.000000 I0.164391 J-0.164392
G03 X8.465911 Y4.409419 Z-1.000000 I0.000000 J1.355025
G01 X8.996431 Y4.939938 Z-1.000000
G02 X9.457265 Y4.839504 Z-1.000000 I0.198171 J-0.198172
G02 X9.300854 Y4.121827 Z-1.000000 I-0.637040 J-0.237046
G01 X9.260175 Y4.081148 Z-1.000000
G03 X9.098434 Y3.358142 Z-1.000000 I0.488980 J-0.488982
G03 X9.557097 Y3.255537 Z-1.000000 I0.261877 J0.094181
G01 X9.605277 Y3.303718 Z-1.000000
G02 X10.066111 Y3.203283 Z-1.000000 I0.198171 J-0.198172
G02 X9.909700 Y2.485607 Z-1.000000 I-0.637040 J-0.237046
G01 X9.854019 Y2.429925 Z-1.000000
G03 X9.692278 Y1.706919 Z-1.000000 I0.488980 J-0.488982
G03 X10.150941 Y1.604313 Z-1.000000 I0.261877 J0.094181
G01 X10.245928 Y1.699300 Z-1.000000
G02 X10.706761 Y1.598866 Z-1.000000 I0.198171 J-0.198172
G02 X10.550351 Y0.881190 Z-1.000000 I-0.637040 J-0.237046
G01 X10.161203 Y0.492044 Z-1.000000
G00 Z5.000000

(End cutting path id: path852)


(Start cutting path id: path852)
(Change tool to Default tool)

G00 Z5.000000
G00 X6.136478 Y11.060256

G01 Z-1.000000 F100.0(Penetrate)
G01 X6.561047 Y11.484822 Z-1.000000 F400.000000
G02 X7.021880 Y11.384388 Z-1.000000 I0.198171 J-0.198172
G02 X6.865470 Y10.666712 Z-1.000000 I-0.637040 J-0.237046
G01 X6.857589 Y10.658831 Z-1.000000
G03 X6.698154 Y9.938130 Z-1.000000 I0.485355 J-0.485357
G03 X7.157750 Y9.836457 Z-1.000000 I0.262216 J0.095707
G01 X7.169893 Y9.848601 Z-1.000000
G02 X7.630726 Y9.748167 Z-1.000000 I0.198171 J-0.198172
G02 X7.474316 Y9.030490 Z-1.000000 I-0.637040 J-0.237046
G01 X7.457909 Y9.014084 Z-1.000000
G03 X7.298474 Y8.293383 Z-1.000000 I0.485355 J-0.485357
G03 X7.758070 Y8.191710 Z-1.000000 I0.262216 J0.095707
G01 X7.778739 Y8.212380 Z-1.000000
G02 X8.239573 Y8.111945 Z-1.000000 I0.198171 J-0.198172
G02 X8.083162 Y7.394269 Z-1.000000 I-0.637040 J-0.237046
G01 X8.058230 Y7.369337 Z-1.000000
G03 X7.898795 Y6.648636 Z-1.000000 I0.485355 J-0.485357
G03 X8.358390 Y6.546963 Z-1.000000 I0.262216 J0.095707
G01 X8.387585 Y6.576158 Z-1.000000
G02 X8.848419 Y6.475724 Z-1.000000 I0.198171 J-0.198172
G02 X8.692008 Y5.758048 Z-1.000000 I-0.637040 J-0.237046
G01 X7.343374 Y4.409419 Z-1.000000
G03 X7.507765 Y4.012543 Z-1.000000 I0.164391 J-0.164392
G03 X8.465911 Y4.409419 Z-1.000000 I0.000000 J1.355025
G01 X8.996431 Y4.939938 Z-1.000000
G02 X9.457265 Y4.839504 Z-1.000000 I0.198171 J-0.198172
G02 X9.300854 Y4.121827 Z-1.000000 I-0.637040 J-0.237046
G01 X9.260175 Y4.081148 Z-1.000000
G03 X9.098434 Y3.358142 Z-1.000000 I0.488980 J-0.488982
G03 X9.557097 Y3.255537 Z-1.000000 I0.261877 J0.094181
G01 X9.605277 Y3.303718 Z-1.000000
G02 X10.066111 Y3.203283 Z-1.000000 I0.198171 J-0.198172
G02 X9.909700 Y2.485607 Z-1.000000 I-0.637040 J-0.237046
G01 X9.854019 Y2.429925 Z-1.000000
G03 X9.692278 Y1.706919 Z-1.000000 I0.488980 J-0.488982
G03 X10.150941 Y1.604313 Z-1.000000 I0.261877 J0.094181
G01 X10.245928 Y1.699300 Z-1.000000
G02 X10.706761 Y1.598866 Z-1.000000 I0.198171 J-0.198172
G02 X10.550351 Y0.881190 Z-1.000000 I-0.637040 J-0.237046
G01 X10.161203 Y0.492044 Z-1.000000
G00 Z5.000000

(End cutting path id: path852)


(Start cutting path id: path857)
(Change tool to Default tool)

G00 Z5.000000
G00 X13.820906 Y12.007025

G01 Z-1.000000 F100.0(Penetrate)
G01 X14.071341 Y12.257458 Z-1.000000 F400.000000
G02 X15.029487 Y12.654334 Z-1.000000 I0.958145 J-0.958148
G02 X15.193878 Y12.257458 Z-1.000000 I0.000000 J-0.232484
G01 X14.241858 Y11.305442 Z-1.000000
G03 X13.844982 Y10.347302 Z-1.000000 I0.958136 J-0.958140
G03 X14.241858 Y10.182911 Z-1.000000 I0.232485 J-0.000000
G01 X14.576094 Y10.517145 Z-1.000000
G02 X14.972969 Y10.352753 Z-1.000000 I0.164391 J-0.164392
G02 X14.576094 Y9.394613 Z-1.000000 I-1.355012 J0.000000
G01 X14.241858 Y9.060379 Z-1.000000
G03 X13.844982 Y8.102239 Z-1.000000 I0.958136 J-0.958140
G03 X14.241858 Y7.937847 Z-1.000000 I0.232485 J0.000000
G01 X14.576094 Y8.272081 Z-1.000000
G02 X14.973004 Y8.107724 Z-1.000000 I0.164406 J-0.164406
G02 X14.576332 Y7.149788 Z-1.000000 I-1.354316 J-0.000288
G01 X14.241858 Y6.815316 Z-1.000000
G03 X13.844982 Y5.857176 Z-1.000000 I0.958136 J-0.958140
G03 X14.241858 Y5.692784 Z-1.000000 I0.232485 J-0.000000
G01 X15.589373 Y7.040294 Z-1.000000
G02 X16.547518 Y7.437170 Z-1.000000 I0.958146 J-0.958149
G02 X16.711909 Y7.040294 Z-1.000000 I0.000000 J-0.232484
G01 X16.675981 Y7.004366 Z-1.000000
G03 X16.840372 Y6.607490 Z-1.000000 I0.164391 J-0.164392
G03 X17.798517 Y7.004366 Z-1.000000 I-0.000000 J1.355025
G01 X17.978795 Y7.184643 Z-1.000000
G02 X19.612094 Y7.695404 Z-1.000000 I1.304432 J-1.304438
G02 X19.879506 Y6.840282 Z-1.000000 I-0.090145 J-0.497563
G01 X19.860084 Y6.820861 Z-1.000000
G03 X19.977408 Y6.376919 Z-1.000000 I0.187833 J-0.187834
G03 X20.740290 Y6.578532 Z-1.000000 I0.208213 J0.756284
G01 X20.740290 Y6.578532 Z-1.000000
G02 X21.397601 Y6.674574 Z-1.000000 I0.393111 J-0.393113
G02 X21.469154 Y6.184861 Z-1.000000 I-0.146647 J-0.271511
G01 X21.443974 Y6.159680 Z-1.000000
G03 X21.388476 Y5.542917 Z-1.000000 I0.341617 J-0.341618
G03 X21.903409 Y5.496582 Z-1.000000 I0.276809 J0.191790
G01 X21.960179 Y5.553351 Z-1.000000
G02 X22.453661 Y5.485566 Z-1.000000 I0.221035 J-0.221036
G02 X22.364289 Y4.834928 Z-1.000000 I-0.473606 J-0.266402
G01 X21.706486 Y4.177127 Z-1.000000
G00 Z5.000000

(End cutting path id: path857)


(Start cutting path id: path857)
(Change tool to Default tool)

G00 Z5.000000
G00 X13.820906 Y12.007025

G01 Z-1.000000 F100.0(Penetrate)
G01 X14.071341 Y12.257458 Z-1.000000 F400.000000
G02 X15.029487 Y12.654334 Z-1.000000 I0.958145 J-0.958148
G02 X15.193878 Y12.257458 Z-1.000000 I0.000000 J-0.232484
G01 X14.241858 Y11.305442 Z-1.000000
G03 X13.844982 Y10.347302 Z-1.000000 I0.958136 J-0.958140
G03 X14.241858 Y10.182911 Z-1.000000 I0.232485 J-0.000000
G01 X14.576094 Y10.517145 Z-1.000000
G02 X14.972969 Y10.352753 Z-1.000000 I0.164391 J-0.164392
G02 X14.576094 Y9.394613 Z-1.000000 I-1.355012 J0.000000
G01 X14.241858 Y9.060379 Z-1.000000
G03 X13.844982 Y8.102239 Z-1.000000 I0.958136 J-0.958140
G03 X14.241858 Y7.937847 Z-1.000000 I0.232485 J0.000000
G01 X14.576094 Y8.272081 Z-1.000000
G02 X14.973004 Y8.107724 Z-1.000000 I0.164406 J-0.164406
G02 X14.576332 Y7.149788 Z-1.000000 I-1.354316 J-0.000288
G01 X14.241858 Y6.815316 Z-1.000000
G03 X13.844982 Y5.857176 Z-1.000000 I0.958136 J-0.958140
G03 X14.241858 Y5.692784 Z-1.000000 I0.232485 J-0.000000
G01 X15.589373 Y7.040294 Z-1.000000
G02 X16.547518 Y7.437170 Z-1.000000 I0.958146 J-0.958149
G02 X16.711909 Y7.040294 Z-1.000000 I0.000000 J-0.232484
G01 X16.675981 Y7.004366 Z-1.000000
G03 X16.840372 Y6.607490 Z-1.000000 I0.164391 J-0.164392
G03 X17.798517 Y7.004366 Z-1.000000 I-0.000000 J1.355025
G01 X17.978795 Y7.184643 Z-1.000000
G02 X19.612094 Y7.695404 Z-1.000000 I1.304432 J-1.304438
G02 X19.879506 Y6.840282 Z-1.000000 I-0.090145 J-0.497563
G01 X19.860084 Y6.820861 Z-1.000000
G03 X19.977408 Y6.376919 Z-1.000000 I0.187833 J-0.187834
G03 X20.740290 Y6.578532 Z-1.000000 I0.208213 J0.756284
G01 X20.740290 Y6.578532 Z-1.000000
G02 X21.397601 Y6.674574 Z-1.000000 I0.393111 J-0.393113
G02 X21.469154 Y6.184861 Z-1.000000 I-0.146647 J-0.271511
G01 X21.443974 Y6.159680 Z-1.000000
G03 X21.388476 Y5.542917 Z-1.000000 I0.341617 J-0.341618
G03 X21.903409 Y5.496582 Z-1.000000 I0.276809 J0.191790
G01 X21.960179 Y5.553351 Z-1.000000
G02 X22.453661 Y5.485566 Z-1.000000 I0.221035 J-0.221036
G02 X22.364289 Y4.834928 Z-1.000000 I-0.473606 J-0.266402
G01 X21.706486 Y4.177127 Z-1.000000
G00 Z5.000000

(End cutting path id: path857)


(Start cutting path id: path857)
(Change tool to Default tool)

G00 Z5.000000
G00 X21.645639 Y8.606407

G01 Z-1.000000 F100.0(Penetrate)
G01 X20.931855 Y7.892625 Z-1.000000 F400.000000
G00 Z5.000000

(End cutting path id: path857)


(Start cutting path id: path857)
(Change tool to Default tool)

G00 Z5.000000
G00 X21.645639 Y8.606407

G01 Z-1.000000 F100.0(Penetrate)
G01 X20.931855 Y7.892625 Z-1.000000 F400.000000
G00 Z5.000000

(End cutting path id: path857)


(Start cutting path id: path841)
(Change tool to Default tool)

G00 Z5.000000
G00 X20.360322 Y9.739429

G01 Z-1.000000 F100.0(Penetrate)
G03 X20.315832 Y10.183934 Z-1.000000 I-2.242788 J0.000000 F400.000000
G03 X20.205295 Y10.506116 Z-1.000000 I-1.278011 J-0.258419
G03 X20.009923 Y10.779504 Z-1.000000 I-0.950262 J-0.472582
G03 X19.705760 Y11.011624 Z-1.000000 I-0.978751 J-0.967185
G03 X19.284754 Y11.186634 Z-1.000000 I-0.948525 J-1.687893
G03 X18.723917 Y11.289652 Z-1.000000 I-0.825123 J-2.913880
G03 X18.145974 Y11.331069 Z-1.000000 I-0.971941 J-9.509692
G03 X17.294216 Y11.348630 Z-1.000000 I-0.851758 J-20.647933
G01 X15.261628 Y11.348630 Z-1.000000
G01 X15.261628 Y7.725825 Z-1.000000
G01 X17.466469 Y7.725825 Z-1.000000
G03 X18.265558 Y7.749573 Z-1.000000 I-0.000000 J13.455986
G03 X18.741143 Y7.801656 Z-1.000000 I-0.286191 J4.810708
G03 X19.198358 Y7.928764 Z-1.000000 I-0.437336 J2.458987
G03 X19.619633 Y8.138660 Z-1.000000 I-0.879965 J2.293858
G03 X19.970507 Y8.437040 Z-1.000000 I-0.835253 J1.337690
G03 X20.188069 Y8.787396 Z-1.000000 I-0.950960 J0.833251
G03 X20.312063 Y9.201651 Z-1.000000 I-1.782333 J0.759168
G03 X20.360322 Y9.739434 Z-1.000000 I-2.972317 J0.537783
G01 X20.360322 Y9.739429 Z-1.000000
G00 Z5.000000

(End cutting path id: path841)


(Start cutting path id: path841)
(Change tool to Default tool)

G00 Z5.000000
G00 X20.360322 Y9.739429

G01 Z-1.000000 F100.0(Penetrate)
G03 X20.315832 Y10.183934 Z-1.000000 I-2.242788 J0.000000 F400.000000
G03 X20.205295 Y10.506116 Z-1.000000 I-1.278011 J-0.258419
G03 X20.009923 Y10.779504 Z-1.000000 I-0.950262 J-0.472582
G03 X19.705760 Y11.011624 Z-1.000000 I-0.978751 J-0.967185
G03 X19.284754 Y11.186634 Z-1.000000 I-0.948525 J-1.687893
G03 X18.723917 Y11.289652 Z-1.000000 I-0.825123 J-2.913880
G03 X18.145974 Y11.331069 Z-1.000000 I-0.971941 J-9.509692
G03 X17.294216 Y11.348630 Z-1.000000 I-0.851758 J-20.647933
G01 X15.261628 Y11.348630 Z-1.000000
G01 X15.261628 Y7.725825 Z-1.000000
G01 X17.466469 Y7.725825 Z-1.000000
G03 X18.265558 Y7.749573 Z-1.000000 I-0.000000 J13.455986
G03 X18.741143 Y7.801656 Z-1.000000 I-0.286191 J4.810708
G03 X19.198358 Y7.928764 Z-1.000000 I-0.437336 J2.458987
G03 X19.619633 Y8.138660 Z-1.000000 I-0.879965 J2.293858
G03 X19.970507 Y8.437040 Z-1.000000 I-0.835253 J1.337690
G03 X20.188069 Y8.787396 Z-1.000000 I-0.950960 J0.833251
G03 X20.312063 Y9.201651 Z-1.000000 I-1.782333 J0.759168
G03 X20.360322 Y9.739434 Z-1.000000 I-2.972317 J0.537783
G01 X20.360322 Y9.739429 Z-1.000000
G00 Z5.000000

(End cutting path id: path841)


(Start cutting path id: path857)
(Change tool to Default tool)

G00 Z5.000000
G00 X15.672166 Y11.613213

G01 Z-1.000000 F100.0(Penetrate)
G01 X16.145897 Y12.086942 Z-1.000000 F400.000000
G02 X17.101314 Y12.481089 Z-1.000000 I0.951571 J-0.951575
G02 X17.265235 Y12.083744 Z-1.000000 I-0.000665 J-0.232759
G01 X17.215653 Y12.034162 Z-1.000000
G03 X17.378345 Y11.635588 Z-1.000000 I0.165100 J-0.165100
G03 X18.326731 Y12.022704 Z-1.000000 I0.013632 J1.321874
G01 X18.352539 Y12.048513 Z-1.000000
G02 X19.204628 Y12.339332 Z-1.000000 I0.722143 J-0.722146
G02 X19.347445 Y11.920884 Z-1.000000 I-0.031338 J-0.244292
G01 X19.308264 Y11.881703 Z-1.000000
G03 X19.429797 Y11.441969 Z-1.000000 I0.185416 J-0.185416
G03 X20.205435 Y11.656338 Z-1.000000 I0.198758 J0.791252
G01 X20.205435 Y11.656338 Z-1.000000
G02 X20.821600 Y11.711235 Z-1.000000 I0.340900 J-0.340901
G02 X20.867514 Y11.195884 Z-1.000000 I-0.192559 J-0.276877
G01 X20.808680 Y11.137050 Z-1.000000
G03 X20.606277 Y10.373382 Z-1.000000 I0.556023 J-0.556025
G03 X21.049953 Y10.255790 Z-1.000000 I0.255997 J0.070087
G01 X21.290036 Y10.495872 Z-1.000000
G02 X21.714778 Y10.359346 Z-1.000000 I0.177317 J-0.177318
G02 X21.448911 Y9.532214 Z-1.000000 I-0.938303 J-0.154694
G01 X18.488312 Y6.571626 Z-1.000000
G00 Z5.000000

(End cutting path id: path857)


(Start cutting path id: path857)
(Change tool to Default tool)

G00 Z5.000000
G00 X15.672166 Y11.613213

G01 Z-1.000000 F100.0(Penetrate)
G01 X16.145897 Y12.086942 Z-1.000000 F400.000000
G02 X17.101314 Y12.481089 Z-1.000000 I0.951571 J-0.951575
G02 X17.265235 Y12.083744 Z-1.000000 I-0.000665 J-0.232759
G01 X17.215653 Y12.034162 Z-1.000000
G03 X17.378345 Y11.635588 Z-1.000000 I0.165100 J-0.165100
G03 X18.326731 Y12.022704 Z-1.000000 I0.013632 J1.321874
G01 X18.352539 Y12.048513 Z-1.000000
G02 X19.204628 Y12.339332 Z-1.000000 I0.722143 J-0.722146
G02 X19.347445 Y11.920884 Z-1.000000 I-0.031338 J-0.244292
G01 X19.308264 Y11.881703 Z-1.000000
G03 X19.429797 Y11.441969 Z-1.000000 I0.185416 J-0.185416
G03 X20.205435 Y11.656338 Z-1.000000 I0.198758 J0.791252
G01 X20.205435 Y11.656338 Z-1.000000
G02 X20.821600 Y11.711235 Z-1.000000 I0.340900 J-0.340901
G02 X20.867514 Y11.195884 Z-1.000000 I-0.192559 J-0.276877
G01 X20.808680 Y11.137050 Z-1.000000
G03 X20.606277 Y10.373382 Z-1.000000 I0.556023 J-0.556025
G03 X21.049953 Y10.255790 Z-1.000000 I0.255997 J0.070087
G01 X21.290036 Y10.495872 Z-1.000000
G02 X21.714778 Y10.359346 Z-1.000000 I0.177317 J-0.177318
G02 X21.448911 Y9.532214 Z-1.000000 I-0.938303 J-0.154694
G01 X18.488312 Y6.571626 Z-1.000000
G00 Z5.000000

(End cutting path id: path857)


(Start cutting path id: path852)
(Change tool to Default tool)

G00 Z5.000000
G00 X4.563232 Y11.732079

G01 Z-1.000000 F100.0(Penetrate)
G01 X4.951140 Y12.119986 Z-1.000000 F400.000000
G02 X5.909285 Y12.516861 Z-1.000000 I0.958145 J-0.958150
G02 X6.073676 Y12.119986 Z-1.000000 I0.000000 J-0.232484
G01 X4.318947 Y10.365263 Z-1.000000
G03 X3.311916 Y8.796969 Z-1.000000 I3.094469 J-3.094482
G03 X3.653711 Y8.577496 Z-1.000000 I0.194813 J-0.072491
G01 X4.532302 Y9.456085 Z-1.000000
G02 X4.874836 Y9.237351 Z-1.000000 I0.147143 J-0.147144
G02 X3.883188 Y7.684441 Z-1.000000 I-4.015956 J1.471409
G01 X2.988474 Y6.789730 Z-1.000000
G03 X1.981443 Y5.221436 Z-1.000000 I3.094469 J-3.094482
G03 X2.323238 Y5.001964 Z-1.000000 I0.194813 J-0.072491
G01 X3.234074 Y5.912796 Z-1.000000
G02 X3.597350 Y5.714805 Z-1.000000 I0.152485 J-0.152486
G02 X2.925026 Y4.481217 Z-1.000000 I-2.430629 J0.524723
G01 X1.658001 Y3.214197 Z-1.000000
G03 X0.650970 Y1.645904 Z-1.000000 I3.094469 J-3.094482
G03 X0.992765 Y1.426431 Z-1.000000 I0.194813 J-0.072491
G01 X2.095725 Y2.529386 Z-1.000000
G02 X2.439137 Y2.311532 Z-1.000000 I0.147338 J-0.147339
G02 X1.465293 Y0.776425 Z-1.000000 I-3.918020 J1.409072
G01 X1.180914 Y0.492047 Z-1.000000
G00 Z5.000000

(End cutting path id: path852)


(Start cutting path id: path852)
(Change tool to Default tool)

G00 Z5.000000
G00 X4.563232 Y11.732079

G01 Z-1.000000 F100.0(Penetrate)
G01 X4.951140 Y12.119986 Z-1.000000 F400.000000
G02 X5.909285 Y12.516861 Z-1.000000 I0.958145 J-0.958150
G02 X6.073676 Y12.119986 Z-1.000000 I0.000000 J-0.232484
G01 X4.318947 Y10.365263 Z-1.000000
G03 X3.311916 Y8.796969 Z-1.000000 I3.094469 J-3.094482
G03 X3.653711 Y8.577496 Z-1.000000 I0.194813 J-0.072491
G01 X4.532302 Y9.456085 Z-1.000000
G02 X4.874836 Y9.237351 Z-1.000000 I0.147143 J-0.147144
G02 X3.883188 Y7.684441 Z-1.000000 I-4.015956 J1.471409
G01 X2.988474 Y6.789730 Z-1.000000
G03 X1.981443 Y5.221436 Z-1.000000 I3.094469 J-3.094482
G03 X2.323238 Y5.001964 Z-1.000000 I0.194813 J-0.072491
G01 X3.234074 Y5.912796 Z-1.000000
G02 X3.597350 Y5.714805 Z-1.000000 I0.152485 J-0.152486
G02 X2.925026 Y4.481217 Z-1.000000 I-2.430629 J0.524723
G01 X1.658001 Y3.214197 Z-1.000000
G03 X0.650970 Y1.645904 Z-1.000000 I3.094469 J-3.094482
G03 X0.992765 Y1.426431 Z-1.000000 I0.194813 J-0.072491
G01 X2.095725 Y2.529386 Z-1.000000
G02 X2.439137 Y2.311532 Z-1.000000 I0.147338 J-0.147339
G02 X1.465293 Y0.776425 Z-1.000000 I-3.918020 J1.409072
G01 X1.180914 Y0.492047 Z-1.000000
G00 Z5.000000

(End cutting path id: path852)


(Footer)
M5
G00 X0.0000 Y0.0000
M2
(Using default footer. To add your own footer create file "footer" in the output dir.)
(end)
%