%
(Header)
(Generated by gcodetools from Inkscape.)
(Using default header. To add your own header create file "header" in the output dir.)
M3
(Header end.)
G21 (All units in mm)

(Start cutting path id: path10)
(Change tool to Default tool)

G00 Z5.000000
G00 X11.281250 Y10.593750

G01 Z-1.000000 F100.0(Penetrate)
G02 X11.733364 Y10.037663 Z-1.000000 I0.026420 J-0.440353 F400.000000
G02 X11.348070 Y9.480127 Z-1.000000 I-0.982600 J0.267141
G02 X9.934373 Y9.416713 Z-1.000000 I-0.755032 J1.042448
G02 X9.054006 Y10.460113 Z-1.000000 I1.069337 J1.795355
G02 X9.306749 Y12.663644 Z-1.000000 I2.230843 J0.860384
G02 X11.080797 Y13.934619 Z-1.000000 I2.613826 J-1.774810
G02 X14.082265 Y13.387593 Z-1.000000 I0.933517 J-3.385769
G02 X15.735744 Y10.861023 Z-1.000000 I-2.511962 J-3.448252
G02 X14.901533 Y7.057961 Z-1.000000 I-4.523216 J-1.000846
G02 X11.615343 Y5.025635 Z-1.000000 I-4.284125 J3.254278
G02 X7.008852 Y6.143914 Z-1.000000 I-1.066904 J5.651963
G02 X4.599514 Y10.192840 Z-1.000000 I3.997270 J5.119908
G02 X6.000225 Y15.603803 Z-1.000000 I6.775941 J1.132723
G02 X10.813524 Y18.389111 Z-1.000000 I5.955459 J-4.740054
G02 X17.029605 Y16.706932 Z-1.000000 I1.198573 J-7.897059
G02 X20.190236 Y11.128296 Z-1.000000 I-5.482482 J-6.790815
G02 X18.227205 Y4.106668 Z-1.000000 I-9.016342 J-1.264524
G02 X11.882616 Y0.571143 Z-1.000000 I-7.626025 J6.224570
G02 X4.055140 Y2.814612 Z-1.000000 I-1.330581 J10.134385
G02 X0.145020 Y9.925567 Z-1.000000 I6.966374 J8.461130
G02 X2.668631 Y18.559104 Z-1.000000 I11.251551 J1.396733
G02 X10.546249 Y22.843603 Z-1.000000 I9.296157 J-7.707942
G02 X19.986010 Y20.040066 Z-1.000000 I1.462971 J-12.368075
G02 X24.644726 Y11.395569 Z-1.000000 I-8.449320 J-10.131123
G00 Z5.000000

(End cutting path id: path10)


(Start cutting path id: path10)
(Change tool to Default tool)

G00 Z5.000000
G00 X11.281250 Y10.593750

G01 Z-1.000000 F100.0(Penetrate)
G02 X11.733364 Y10.037663 Z-1.000000 I0.026420 J-0.440353 F400.000000
G02 X11.348070 Y9.480127 Z-1.000000 I-0.982600 J0.267141
G02 X9.934373 Y9.416713 Z-1.000000 I-0.755032 J1.042448
G02 X9.054006 Y10.460113 Z-1.000000 I1.069337 J1.795355
G02 X9.306749 Y12.663644 Z-1.000000 I2.230843 J0.860384
G02 X11.080797 Y13.934619 Z-1.000000 I2.613826 J-1.774810
G02 X14.082265 Y13.387593 Z-1.000000 I0.933517 J-3.385769
G02 X15.735744 Y10.861023 Z-1.000000 I-2.511962 J-3.448252
G02 X14.901533 Y7.057961 Z-1.000000 I-4.523216 J-1.000846
G02 X11.615343 Y5.025635 Z-1.000000 I-4.284125 J3.254278
G02 X7.008852 Y6.143914 Z-1.000000 I-1.066904 J5.651963
G02 X4.599514 Y10.192840 Z-1.000000 I3.997270 J5.119908
G02 X6.000225 Y15.603803 Z-1.000000 I6.775941 J1.132723
G02 X10.813524 Y18.389111 Z-1.000000 I5.955459 J-4.740054
G02 X17.029605 Y16.706932 Z-1.000000 I1.198573 J-7.897059
G02 X20.190236 Y11.128296 Z-1.000000 I-5.482482 J-6.790815
G02 X18.227205 Y4.106668 Z-1.000000 I-9.016342 J-1.264524
G02 X11.882616 Y0.571143 Z-1.000000 I-7.626025 J6.224570
G02 X4.055140 Y2.814612 Z-1.000000 I-1.330581 J10.134385
G02 X0.145020 Y9.925567 Z-1.000000 I6.966374 J8.461130
G02 X2.668631 Y18.559104 Z-1.000000 I11.251551 J1.396733
G02 X10.546249 Y22.843603 Z-1.000000 I9.296157 J-7.707942
G02 X19.986010 Y20.040066 Z-1.000000 I1.462971 J-12.368075
G02 X24.644726 Y11.395569 Z-1.000000 I-8.449320 J-10.131123
G00 Z5.000000

(End cutting path id: path10)


(Footer)
M5
G00 X0.0000 Y0.0000
M2
(Using default footer. To add your own footer create file "footer" in the output dir.)
(end)
%